X:1
T:Hymn of Eve, 99.98.88.88
T:Hymn of Eve, 99.98.88.88
T:Thomas Augustine Arne, 1789
T:Public Domain Courtesy of the Cyber Hymnal™
C:Thomas Augustine Arne, 1789
Z:Public Domain
Z:Courtesy of the Cyber Hymnal™
%%score ( 1 2 ) ( 3 4 )
L:1/8
Q:1/4=105
M:3/4
K:Eb
V:1 treble 
V:2 treble 
V:3 bass 
V:4 bass 
V:1
 [FB][FB] | G3 z F E2 | e3 z d [Ac]2 | B4 [FA][FA] | G3 z A [EB]2 | c2 (d[Fc]) ([GB][FA]) | %6
 ([EG]2 [DF]2) [FB][FB] | G3 z F E2 | e3 z d [=Ac]2 | d4 [Ge]2 | [Ff]2 [AB]2 [Ge]2 | d3 z e c2 | %12
 [DB]4 [EB]2 | c3 z G [FA]2 | B2 [Ac]2 [G_d]2 | (_d2 c2) [=EB]2 | A3 z G F2 | c3 z d [Ge]2 | %18
 [Ge]2 [Fd]2 [FB][FB] | [EA]2 [EG]2 ([DF]E) | _d3 z c [EB]2 | [Ec]4 ([Gd][Fd]) | [Ee]2 E2 [FA]2 | %23
 [EG]3 [CA] [DF]2 | E4 |] %25
V:2
 x2 | E2 (D2 E2) x | E2 B2 x3 | (G2 F2) x2 | F2 E2 x3 | E3 x3 | x6 | E2 (D2 E2) x | E2 G2 x3 | %9
 (B2 F2) x2 | x6 | F2 (F2 FE) x | x6 | E2 =E2 x3 | (FG) x4 | A4 x2 | F2 (=E2 F2) x | F2 F2 x3 | %18
 x6 | x6 | E2 E2 x3 | x6 | x2 E2 x2 | x6 | E4 |] %25
V:3
 [D,B,][D,B,] | [E,B,]2 [F,A,]2 G,2 x | [G,B,]2 [G,E]2 [A,E]2 x | (E2 D2) [D,B,][D,B,] | %4
 B,2 z [G,B,]2 x2 | A,2 (CD) ([G,E][A,C]) | B,4 [D,B,][D,B,] | [E,B,]2 [F,A,]2 [G,B,]2 x | %8
 [C,C]2 [C,C]2 [F,C]2 x | B,4 (B,C) | [D,D]2 [D,B,]2 [E,B,]2 | [F,B,]2 [F,B,]2 [F,,=A,]2 x | %12
 [B,,B,]4 [E,G,]2 | A,2 [G,B,]2 [F,C]2 x | _D2 [CE]2 [B,E]2 | [A,E]4 [G,C]2 | %16
 [F,C]2 [G,B,]2 [A,C]2 x | [A,C]2 [A,C]2 [=A,C]2 x | B,4 [D,B,][D,B,] | [E,C]2 [E,B,]2 [F,A,]2 | %20
 [G,B,]2 [F,A,]2 (E_D) x | [A,C]4 ([G,=B,][G,B,]) | C2 ([CE][B,D]) [A,C]2 | B,2 B,2 (B,A,) | %24
 [E,G,]4 |] %25
V:4
 x2 | x4 G,2 x | x7 | B,4 x2 | E,3 (B,2 F,) x | A,2 A,2 x2 | B,4 x2 | x7 | x7 | B,4 E,2 | x6 | x7 | %12
 x6 | A,2 x5 | _D2 x4 | x6 | x7 | x7 | B,4 x2 | x6 | x4 G,2 x | x6 | C2 x4 | B,2 B,2 B,,2 | x4 |] %25

